icons/plug-24.svg

<svg xmlns="http://www.w3.org/2000/svg" width="24" height="24" viewBox="0 0 24 24"><path d="M7 11.5H2.938c-.794 0-1.438.644-1.438 1.437v8.313a.75.75 0 01-1.5 0v-8.312A2.939 2.939 0 012.937 10H7V6.151c0-.897.678-1.648 1.57-1.74l6.055-.626 1.006-1.174A1.752 1.752 0 0116.96 2h1.29c.966 0 1.75.784 1.75 1.75V6h3.25a.75.75 0 010 1.5H20V14h3.25a.75.75 0 010 1.5H20v2.25a1.75 1.75 0 01-1.75 1.75h-1.29a1.75 1.75 0 01-1.329-.611l-1.006-1.174-6.055-.627A1.749 1.749 0 017 15.348zm9.77-7.913v.001l-1.201 1.4a.75.75 0 01-.492.258l-6.353.657a.25.25 0 00-.224.249v9.196a.25.25 0 00.224.249l6.353.657c.191.02.368.112.493.258l1.2 1.401a.252.252 0 00.19.087h1.29a.25.25 0 00.25-.25v-14a.25.25 0 00-.25-.25h-1.29a.252.252 0 00-.19.087z"/></svg>

<svg xmlns="http://www.w3.org/2000/svg" width="24" height="24" viewBox="0 0 24 24">
  <defs/>
  <path d="M7,11.5 L2.938,11.5 C2.144,11.5 1.5,12.144 1.5,12.937 L1.5,21.25 C1.5,21.664 1.164,22 0.75,22 C0.336,22 0,21.664 0,21.25 L0,12.938 C0,11.316 1.315,10.001 2.937,10 L7,10 L7,6.151 C7,5.254 7.678,4.503 8.57,4.411 L14.625,3.785 L15.631,2.611 C15.964,2.223 16.45,2 16.96,2 L18.25,2 C19.216,2 20,2.784 20,3.75 L20,6 L23.25,6 C23.664,6 24,6.336 24,6.75 C24,7.164 23.664,7.5 23.25,7.5 L20,7.5 L20,14 L23.25,14 C23.664,14 24,14.336 24,14.75 C24,15.164 23.664,15.5 23.25,15.5 L20,15.5 L20,17.75 C20,18.716 19.216,19.5 18.25,19.5 L16.96,19.5 C16.449,19.5 15.964,19.277 15.631,18.889 L14.625,17.715 L8.57,17.088 C7.678,16.996 7,16.245 7,15.348 Z M16.77,3.587 L16.77,3.588 L15.569,4.988 C15.444,5.134 15.268,5.226 15.077,5.246 L8.724,5.903 C8.597,5.916 8.5,6.024 8.5,6.152 L8.5,15.348 C8.5,15.476 8.597,15.584 8.724,15.597 L15.077,16.254 C15.268,16.274 15.445,16.366 15.57,16.512 L16.77,17.913 C16.818,17.968 16.887,18 16.96,18 L18.25,18 C18.388,18 18.5,17.888 18.5,17.75 L18.5,3.75 C18.5,3.612 18.388,3.5 18.25,3.5 L16.96,3.5 C16.887,3.5 16.818,3.532 16.77,3.587 Z"/>
</svg>
